remix/Others/t-shirt-air-line.svg

<svg viewBox="0 0 24 24" fill="currentColor" xmlns="http://www.w3.org/2000/svg"><path d="M12.7052 17.7929C13.5319 18.6197 14.2926 19 14.998 19C15.3763 19 15.6782 18.9326 16.2349 18.724L16.6267 18.5715C17.6779 18.151 18.2065 18 18.998 18C20.2117 18 21.3768 18.5446 22.4844 19.5794L22.7052 19.7929L21.2909 21.2071C20.4642 20.3803 19.7035 20 18.998 20C18.6198 20 18.3179 20.0674 17.7612 20.276L17.3694 20.4285C16.3182 20.849 15.7896 21 14.998 21C13.7844 21 12.6193 20.4554 11.5117 19.4206L11.2909 19.2071L12.7052 17.7929ZM8.99805 3C8.99805 4.65685 10.3412 6 11.998 6C13.6549 6 14.998 4.65685 14.998 3H20.998C21.5503 3 21.998 3.44772 21.998 4V11C21.998 11.5523 21.5503 12 20.998 12H16.996L16.9968 10L19.998 9.999V4.999H16.581L16.5642 5.04018C15.8115 6.7223 14.1566 7.91251 12.2149 7.99538L11.998 8C9.96331 8 8.21245 6.7846 7.43186 5.04018L7.41405 4.999H3.99805V9.999L6.9968 9.998L6.99705 19H9.99805V21H5.99805C5.44576 21 4.99805 20.5523 4.99805 20L4.99705 11.999L2.99805 12C2.44576 12 1.99805 11.5523 1.99805 11V4C1.99805 3.44772 2.44576 3 2.99805 3H8.99805ZM12.7052 13.7929C13.5319 14.6197 14.2926 15 14.998 15C15.3763 15 15.6782 14.9326 16.2349 14.724L16.6267 14.5715C17.6779 14.151 18.2065 14 18.998 14C20.2117 14 21.3768 14.5446 22.4844 15.5794L22.7052 15.7929L21.2909 17.2071C20.4642 16.3803 19.7035 16 18.998 16C18.6198 16 18.3179 16.0674 17.7612 16.276L17.3694 16.4285C16.3182 16.849 15.7896 17 14.998 17C13.7844 17 12.6193 16.4554 11.5117 15.4206L11.2909 15.2071L12.7052 13.7929Z"/></svg>

<svg viewBox="0 0 24 24" xmlns="http://www.w3.org/2000/svg"><path fill="none" d="M0 0h24v24H0Z"/><path d="M12.7 17.793c.827.82 1.58 1.2 2.29 1.2 .37 0 .68-.07 1.23-.28l.39-.16c1.05-.43 1.58-.58 2.37-.58 1.21 0 2.37.54 3.48 1.58l.22.21 -1.42 1.41c-.83-.83-1.59-1.21-2.3-1.21 -.38 0-.68.06-1.24.27l-.4.15c-1.05.42-1.58.57-2.38.57 -1.22 0-2.38-.55-3.49-1.58l-.23-.22 1.41-1.42ZM8.99 3v0c0 1.65 1.34 3 3 3 1.65 0 3-1.35 3-3h6v0c.55 0 1 .44 1 1v7 0c0 .55-.45 1-1 1h-4.01v-2l3-.01v-5h-3.42l-.02.04v0c-.78 1.72-2.46 2.87-4.35 2.955l-.22 0v0c-1.98 0-3.77-1.16-4.566-2.96l-.02-.04H3.96v5l2.99-.01v9.001h3v2h-4v0c-.56 0-1-.45-1-1l-.01-8.001 -2 0v0c-.56 0-1-.45-1-1v-7 0c0-.56.44-1 1-1h6Zm3.7 10.793c.82.827 1.58 1.2 2.29 1.2 .37 0 .68-.07 1.23-.28l.39-.16c1.05-.43 1.58-.58 2.37-.58 1.21 0 2.37.54 3.48 1.58l.22.21 -1.42 1.41c-.83-.83-1.59-1.21-2.3-1.21 -.38 0-.68.06-1.24.27l-.4.15c-1.05.42-1.58.57-2.38.57 -1.22 0-2.38-.55-3.49-1.58l-.23-.22 1.41-1.42Z"/></svg>
